!!!COM: Haydn, Franz Joseph
!!!OTL: String Quartet in G Major
!!!OPS: Opus 64
!!!ONM: No. 4
!!!OMD: Adagio cantabile sostenuto
!!!OMV: 3
!!!SCT: H III:66
!!!SCA: Thematisch-bibliographisches Werkevererzeichnis (A. van Hoboken)
!!!YOR: Dover Edition; reprint of Eulenburg Edition
!!!ENC: Frances Bennion
!!!CDT: 1732/3/31/-1809/5/31/
!!!CNT: Oesterreich
!!!YEC: Copyright (c) 1994, 2000 Center for Computer Assisted Research in the Humanities
!!!YEM: Rights to all derivative editions reserved.
!!!YEM: Refer to licensing agreement for further details.
!!!YEN: United States of America
**kern	**kern	**kern	**kern
*k[b-e-a-]	*k[b-e-a-]	*k[]	*k[]
*C:	*C:	*C:	*C:
*clefF4	*clefC3	*clefF	*clefF
*M2/4	*M2/4	*M2/4	*M2/4
4.r	4.r	4.r	4.r
8r	8r	8r	8g
=1	=1	=1	=1
4C	16c	16e	8.cc
.	16G	16G	.
.	16e	16g	.
.	16G	16G	32dd
.	.	.	32cc
4r	16d	16f	8b
.	16G	16G	.
.	16c	16e	8cc
.	16G	16G	.
=2	=2	=2	=2
8GG	16B	16d	8dd
.	16G	16G	.
8r	16d	16f	8gg
.	16G	16G	.
8C	16c	16e	8ee
.	16G	16G	.
8r	16e	16g	8cc
.	16G	16G	.
=3	=3	=3	=3
8F	16B	16d	8dd
.	16G	16G	.
8E	16c	16e	8ee
.	16G	16G	.
8BB	16d	16f	8ff
.	16G	16G	.
8C	16c	16e	8ee
.	16G	16G	.
=4	=4	=4	=4
4GG	16B	16d	8dd
.	16G	16B	.
.	16c	16G	16.ee
.	16F#	16c	.
.	.	.	32dd
4r	16G	16B	8dd
.	16A	16c	.
.	16B	16d	8g
.	16d	16f	.
=5	=5	=5	=5
8CC	16c	16e	8.cc
.	16G	16G	.
8C	16e	16g	.
.	16G	16G	32dd
.	.	.	32cc
4r	16d	16f	8b
.	16G	16G	.
.	16c	16e	8cc
.	16G	16G	.
=6	=6	=6	=6
8GG	16B	16d	8dd
.	16G	16G	.
8r	16d	16f	8gg
.	16G	16G	.
8C	16c	16e	8ee
.	16G	16G	.
8r	16e	16g	8cc
.	16G	16G	.
=7	=7	=7	=7
4BB	16d	16f	8dd
.	16G	16G	.
.	16f	16d	8gg
.	16G	16G	.
8C	16c	16e	8ee
.	16G	16G	.
8AA	16c	16a	8aa
.	16e	16e	.
=8	=8	=8	=8
8D	16B	16g	4gg
.	16B	16d	.
8r	16B	16g	.
.	16B	16d	.
8D	16c	16f#	16ff#
.	16A	16c	16gg
8r	16c	16f#	16aa
.	16F#	16c	16bb
=9	=9	=9	=9
16r	4G	8B	8gg
16G	.	.	.
16D	.	8.r	4r
16BB	.	.	.
8GG	16r	.	.
.	16d	16f	.
8r	16c	16e	8g
.	16B	16d	.
=10	=10	=10	=10
4C	16c	16e	8.cc
.	16G	16G	.
.	16e	16g	.
.	16G	16G	32dd
.	.	.	32cc
4r	16d	16f	8b
.	16G	16G	.
.	16c	16e	8cc
.	16G	16G	.
=11	=11	=11	=11
8GG	16B	16d	32dd
.	.	.	32cc
.	16G	16G	32b
.	.	.	32cc
8r	16d	16f	32dd
.	.	.	32ee
.	16G	16G	32ff
.	.	.	32gg
8C	16c	16e	8ee
.	16G	16G	.
8r	16e	16g	16dd
.	16G	16G	16cc
=12	=12	=12	=12
8F	16B	16d	16dd
.	16G	16G	16dd
8E	16c	16e	16ee
.	16G	16G	16ee
8BB	16d	16f	16gg
.	16G	16G	16ff#
8C	16c	16e	16ff
.	16G	16G	16ee
=13	=13	=13	=13
4GG	16B	16d	8dd
.	16G	16B	.
.	16c	16G	16.ee
.	16F#	16c	.
.	.	.	32dd
4r	16G	16B	8dd
.	16A	16c	.
.	16B	16d	8g
.	16d	16f	.
=14	=14	=14	=14
8CC	16c	16e	8.cc
.	16G	16G	.
8C	16e	16g	.
.	16G	16G	32dd
.	.	.	32cc
4r	16d	16f	16.b
.	16G	16G	.
.	.	.	32cc
.	16c	16e	16.cc
.	16G	16G	.
.	.	.	64b
.	.	.	64cc
=15	=15	=15	=15
8GG	16B	16d	32dd
.	.	.	32cc
.	16G	16G	32b
.	.	.	32cc
8r	16d	16f	32dd
.	.	.	32ee
.	16G	16G	32ff
.	.	.	32gg
8C	16c	16e	8ee
.	16G	16G	.
8r	16e	16g	16dd
.	16G	16G	16cc
=16	=16	=16	=16
4BB	16d	16f	16dd
.	16G	16G	16gg
.	16f	16d	16gg
.	16G	16G	16gg
8C	16e	16e	16ee
.	16c	16A	16aa
8AA	16c	16a	16aa
.	16e	16c	16aa
=17	=17	=17	=17
8D	16B	16g	32gg
.	.	.	32ff#
.	16g	16B	32aa
.	.	.	32gg
8r	16B	16g	32bb
.	.	.	32aa
.	16g	16B	32ccc
.	.	.	32bb
8D	16A	16f#	16ddd
.	16f#	16A	16ccc
8r	16A	16f#	16bb
.	16f#	16A	16aa
=18	=18	=18	=18
16GG	8g	8B	8gg
16G	.	.	.
16D	4r	4r	4r
16BB	.	.	.
8GG	.	.	.
8GG	8B-	8e	8gg
=19	=19	=19	=19
8AA	16A	16d	8.ff
.	16d	16A	.
8A	16d	16f	.
.	16A	16A	32gg
.	.	.	32ff
8r	16c#	16e	8ee
.	16A	16A	.
8GG	16c#	16e	8aa
.	16e	16A	.
=20	=20	=20	=20
8FF	16d	16f	8.aa
.	16A	16A	.
8F	16d	16f	.
.	16A	16A	16ff
8r	16f	16a	8dd
.	16A	16A	.
8C#	16e	16g	8ee
.	16A	16A	.
=21	=21	=21	=21
8D	16d	16f	8ff
.	16A	16A	.
8BB	16d	16f	8gg
.	16G	16G	.
8C	16c	16e	8ee
.	16G	16G	.
8FF	16d	16f	8ff
.	16d	16A	.
=22	=22	=22	=22
8GG	16c	16e	4ee
.	16G	16G	.
8G	16c	16e	.
.	16G	16G	.
8GG	16B	16d	8dd
.	16G	16G	.
8r	16d	16f	8g
.	16G	16G	.
=23	=23	=23	=23
8CC	16c	16e	8.cc
.	16G	16G	.
8C	16e	16g	.
.	16G	16G	32dd
.	.	.	32cc
4r	16d	16f	8b
.	16G	16G	.
.	16c	16e	8cc
.	16G	16G	.
=24	=24	=24	=24
8GG	16B	16d	8dd
.	16G	16G	.
8r	16d	16f	8gg
.	16G	16G	.
8C	16c	16e	8ee
.	16G	16G	.
8EE	16e	16g	8cc
.	16G	16G	.
=25	=25	=25	=25
2FF	16e	16g	8cc
.	16A	16A	.
.	16e	16g	8cc#
.	16A	16A	.
.	16d	16f	8..dd
.	16A	16A	.
.	16d	16f	.
.	16A	16A	.
.	.	.	32aa
=26	=26	=26	=26
[2GG	16d	16f	8aa
.	16B	16G	.
.	16d	16f	16.b
.	16B	16G	.
.	.	.	32gg
.	16c	16e	8gg
.	16e	16G	.
.	16c	16e	16.ee
.	16e	16G	.
.	.	.	32gg
=27	=27	=27	=27
4.GG]	16c	16d	8g
.	16G	16G	.
.	16c	16d	32a
.	.	.	32g
.	16G	16G	32b
.	.	.	32a
.	16B	16d	32cc
.	.	.	32b
.	16G	16G	32dd
.	.	.	32cc
8GG	16B	16d	32ee
.	.	.	32dd
.	16G	16G	32ff
.	.	.	32b
=28	=28	=28	=28
8CC	4F	4B	4dd
8C	.	.	.
8C	8E	8c	8cc
8GG	8B-	8e	8gg
=29	=29	=29	=29
8AA	16A	16d	8.ff
.	16d	16A	.
8A	16d	16f	.
.	16A	16A	32gg
.	.	.	32ff
8r	16c#	16e	8ee
.	16A	16A	.
8GG	16c#	16e	32a
.	.	.	32cc#
.	16e	16A	32ee
.	.	.	32aa
=30	=30	=30	=30
8FF	16d	16f	[12..aa
.	16A	16A	.
8F	16d	16f	.
.	.	.	96aa]
.	.	.	32ff
.	16e	16g	32gg
.	.	.	32ee
8r	16f	16a	8dd
.	16A	16A	.
8C#	16e	16g	16ee
.	16A	16A	32dd
.	.	.	32ee
=31	=31	=31	=31
8D	16d	16f	16ff
.	16A	16A	16ff
8BB	16d	16f	16gg
.	16G	16G	16gg
8C	16c	16e	16ee
.	16G	16G	16ee
8FF	16d	16f	16ff
.	16d	16A	32ee
.	.	.	32ff
=32	=32	=32	=32
8GG	16c	16e	[12..ee
.	16G	16G	.
8G	16c	16e	.
.	.	.	96ee]
.	.	.	32ff
.	16G	16G	32ff#
.	.	.	32gg
8GG	16B	16d	8dd
.	16G	16G	.
8r	16d	16f	8g
.	16G	16G	.
=33	=33	=33	=33
8CC	16c	16e	8.cc
.	16G	16G	.
8C	16e	16g	.
.	16G	16G	32dd
.	.	.	32cc
4r	16d	16f	16.b
.	16G	16G	.
.	.	.	32cc
.	16c	16e	16.cc
.	16G	16G	.
.	.	.	64b
.	.	.	64cc
=34	=34	=34	=34
8GG	16B	16d	32dd
.	.	.	32cc
.	16G	16G	32b
.	.	.	32cc
8r	16d	16f	32dd
.	.	.	32ee
.	16G	16G	32ff
.	.	.	32gg
8C	16c	16e	8ee
.	16G	16G	.
8EE	16e	16g	16dd
.	16G	16G	16cc
=35	=35	=35	=35
2FF	16e	16g	8cc
.	16A	16A	.
.	16e	16g	8cc#
.	16A	16A	.
.	16d	16f	32ee
.	.	.	32dd
.	16A	16A	32ff
.	.	.	32ee
.	16d	16f	32gg
.	.	.	32ff
.	16A	16A	32aa
.	.	.	32gg
=36	=36	=36	=36
[2GG	16d	16f	16aa
.	16B	16G	32gg
.	.	.	32ff
.	16d	16f	32ee
.	.	.	32dd
.	16B	16G	32cc
.	.	.	32b
.	16c	16e	16gg
.	16e	16G	32ff
.	.	.	32ee
.	16c	16e	32dd
.	.	.	32cc
.	16e	16G	32ee
.	.	.	32cc
=37	=37	=37	=37
4.GG]	16c	16d	16g
.	16G	16G	32a-
.	.	.	32a
.	16c	16d	32b-
.	.	.	32b
.	16G	16G	32cc
.	.	.	32cc#
.	16B	16d	16dd
.	16G	16G	16ee
8GG	16B	16d	16ff
.	16F	16G	16b
=38	=38	=38	=38
8CC	4F	4B	4dd
8C	.	.	.
8CC	8E	8c	8cc
8r	8r	8r	8g
=39	=39	=39	=39
2r	16c	16e-	8.cc
.	16g	16g	.
.	16e-	16e-	.
.	16g	16g	32dd
.	.	.	32cc
.	16d	16f	8b
.	16g	16g	.
.	16c	16e-	8cc
.	16g	16g	.
=40	=40	=40	=40
2r	16B	16d	8dd
.	16g	16g	.
.	16G	16B	8gg
.	16g	16g	.
.	16c	16c	8ee-
.	16g	16g	.
.	16e-	16e-	8cc
.	16g	16g	.
=41	=41	=41	=41
2r	16f	4g	8b
.	16g	.	.
.	16e-	.	8cc
.	16g	.	.
.	16B	8dd	8ff
.	16g	.	.
.	16c	8cc	8ee-
.	16g	.	.
=42	=42	=42	=42
2r	16G	4b	8dd
.	16g	.	.
.	16G	.	8gg
.	16g	.	.
.	16A	8cc	8ff#
.	16g	.	.
.	16B	[8dd	8ff
.	16g	.	.
=43	=43	=43	=43
2r	16c	8dd]	4ee-
.	16g	.	.
.	16a-	4cc	.
.	16f#	.	.
.	16g	.	8dd
.	16c	.	.
.	16g	[8b-	8dd-
.	16e	.	.
=44	=44	=44	=44
2r	16f	8b-]	4cc
.	16c	.	.
.	16f	4a-	.
.	16d	.	.
.	16e-	.	8.b-
.	16B-	.	.
.	16e-	8g	.
.	16c	.	16ee-
=45	=45	=45	=45
2r	16A-	16f	[6..ee-
.	16A	16g-	.
.	16B-	16g	.
.	16c-	16a-	.
.	8B-	8g	.
.	.	.	48ee-]
.	.	.	16b-
.	8B-	16f	16a-
.	.	16d	16f
=46	=46	=46	=46
[2E-	2G	8e-	16e-
.	.	.	16g
.	.	4B-	16b-
.	.	.	16dd
.	.	.	16ee-
.	.	.	16bb-
.	.	8B-	16gg
.	.	.	16ee-
=47	=47	=47	=47
2E-_	2A-	2c-	16ee-
.	.	.	16f
.	.	.	16ee-
.	.	.	16f
.	.	.	16dd
.	.	.	16f
.	.	.	16ff
.	.	.	16d
=48	=48	=48	=48
2E-_	2G	2B-	16e-
.	.	.	16g
.	.	.	16b-
.	.	.	16dd
.	.	.	16ee-
.	.	.	16bb-
.	.	.	16gg
.	.	.	16ee-
=49	=49	=49	=49
2E-_	2A-	2c-	16ee-
.	.	.	16f
.	.	.	16ee-
.	.	.	16f
.	.	.	16dd
.	.	.	16f
.	.	.	16ff
.	.	.	16d
=50	=50	=50	=50
4E-]	4G	16B-	16e-
.	.	16e-	16g
.	.	16g	16b-
.	.	16b-	16ee-
4r	8r	16ee-	16gg
.	.	16gg	16bb-
.	8e-	16ff	16aa-
.	.	16ee-	16gg
=51	=51	=51	=51
2r	8b-	16dd	16ff
.	.	16ff	16aa-
.	8b	16ee-	16gg
.	.	16dd	16ff
.	16cc	8dd	4ee-
.	16b-	.	.
.	16a-	[8cc	.
.	16g	.	.
=52	=52	=52	=52
2r	16f	8cc]	4dd-
.	16a-	.	.
.	16g	4b-	.
.	16e-	.	.
.	16a-	.	4cc
.	16g	.	.
.	16f	[8a-	.
.	16e-	.	.
=53	=53	=53	=53
2r	16d-	8a-]	4b-
.	16f	.	.
.	16e-	4g	.
.	16B-	.	.
.	16c	.	4a-
.	16e-	.	.
.	16d-	[8f	.
.	16c	.	.
=54	=54	=54	=54
8r	16B-	8f]	4.g
.	16d-	.	.
8C	16c	8e	.
.	16B-	.	.
16F	4A-	8c	.
16E-	.	.	.
16D	.	8d	8f
16C	.	.	.
=55	=55	=55	=55
16BB	4G	8d	8f
16GG	.	.	.
16C	.	4c	8e-
16EE-	.	.	.
16FF	16A-	.	8d
16EE	16G	.	.
16FF	16F	8c	8e-
16FF#	16F#	.	.
=56	=56	=56	=56
16GG	8G	4c	4.d
16FF#	.	.	.
16GG	4.r	.	.
16AA-	.	.	.
16GG	.	8B	.
16FF	.	.	.
16EE-	.	8r	8g
16DD	.	.	.
=57	=57	=57	=57
8CC	16c	16e-	8.cc
.	16g	16g	.
4.r	16e-	16e-	.
.	16g	16g	32dd
.	.	.	32cc
.	16d	16f	8b
.	16g	16g	.
.	16c	16e-	8cc
.	16g	16g	.
=58	=58	=58	=58
2r	16B	16d	8dd
.	16g	16g	.
.	16G	16B	8gg
.	16g	16g	.
.	16c	16c	8ee-
.	16g	16g	.
.	16e-	16e-	8cc
.	16g	16g	.
=59	=59	=59	=59
2r	16f	4g	8b
.	16g	.	.
.	16e-	.	8cc
.	16g	.	.
.	16B	8dd	8ff
.	16g	.	.
.	16c	8cc	8ee-
.	16g	.	.
=60	=60	=60	=60
16G	4G	4b	4dd
16d	.	.	.
16G	.	.	.
16F	.	.	.
16E	4r	16b-	16dd-
16d-	.	16g	16b-
16E	.	16b-	16dd-
16d-	.	16g	16b-
=61	=61	=61	=61
4F	2r	16g	16b-
.	.	16f	16a-
.	.	16e	16g
.	.	16f	16a-
16F#	.	16cc	16ee-
16e-	.	16a	16cc
16F#	.	16cc	16ee-
16e-	.	16a	16cc
=62	=62	=62	=62
[2G	2B	8g	16b
.	.	.	16g
.	.	4d	16b
.	.	.	16dd
.	.	.	16gg
.	.	.	16g
.	.	8d	16gg
.	.	.	16g
=63	=63	=63	=63
2G_	2c	2e-	16gg
.	.	.	16a
.	.	.	16gg
.	.	.	16a
.	.	.	16ff#
.	.	.	16a
.	.	.	16aa
.	.	.	16f#
=64	=64	=64	=64
2G_	2B	2d	16g
.	.	.	16b
.	.	.	16dd
.	.	.	16ff#
.	.	.	16gg
.	.	.	16ddd
.	.	.	16bb
.	.	.	16gg
=65	=65	=65	=65
2G_	2c	2e-	16gg
.	.	.	16a
.	.	.	16gg
.	.	.	16a
.	.	.	16ff#
.	.	.	16a
.	.	.	16aa
.	.	.	16f#
=66	=66	=66	=66
4G]	4B	8d	16g
.	.	.	16b
.	.	4g	16dd
.	.	.	16ff#
8G	8B	.	16gg
.	.	.	16g
8A	8c	8g	16gg
.	.	.	16g
=67	=67	=67	=67
4B	4d	2g	16gg
.	.	.	16g
.	.	.	16ff#
.	.	.	16g
8B	8d	.	16ff
.	.	.	16g
8c	8e	.	16ee
.	.	.	16g
=68	=68	=68	=68
4.d	4.f	8b	16dd
.	.	.	16g
.	.	8cc	16cc
.	.	.	16g
.	.	8dd	16b
.	.	.	16g
8r	8r	8r	16a
.	.	.	16b
=69	=69	=69	=69
4C	16c	16e	8.cc
.	16G	16G	.
.	16e	16g	.
.	16G	16G	32dd
.	.	.	32cc
4r	16d	16f	8b
.	16G	16G	.
.	16c	16e	8cc
.	16G	16G	.
=70	=70	=70	=70
8GG	16B	16d	8dd
.	16G	16G	.
8r	16d	16f	8gg
.	16G	16G	.
8C	16c	16e	8ee
.	16G	16G	.
8r	16e	16g	8cc
.	16G	16G	.
=71	=71	=71	=71
8F	16B	16d	8dd
.	16G	16G	.
8E	16c	16e	8ee
.	16G	16G	.
8BB	16d	16f	8ff
.	16G	16G	.
8C	16c	16e	8ee
.	16G	16G	.
=72	=72	=72	=72
4GG	16B	16d	8dd
.	16G	16B	.
.	16c	16G	16.ee
.	16F#	16c	.
.	.	.	32dd
4r	16G	16B	8dd
.	16A	16c	.
.	16B	16d	8g
.	16d	16f	.
=73	=73	=73	=73
8CC	16c	16e	8.cc
.	16G	16G	.
8C	16e	16g	.
.	16G	16G	32dd
.	.	.	32cc
4r	16d	16f	16b
.	16G	16G	16gg
.	16c	16e	16cc
.	16G	16G	16gg
=74	=74	=74	=74
8GG	16B	16d	16dd
.	16G	16G	16.gg
8r	16d	16f	.
.	.	.	32aa
.	16G	16G	32ff
.	.	.	32gg
8C	16c	16e	16ee
.	16G	16G	16gg
8r	16e	16g	16ee
.	16G	16G	16cc
=75	=75	=75	=75
4BB	16d	16f	16dd
.	16G	16G	32gg
.	.	.	64ff#
.	.	.	64gg
.	16f	16d	16bb
.	16G	16G	16gg
8C	16c	16e	16ee
.	16G	16G	32gg#
.	.	.	32aa
8AA	16c	16a	32bb
.	.	.	32aa
.	16e	16e	32ccc
.	.	.	32aa
=76	=76	=76	=76
8D	16B	16g	8.gg
.	16B	16d	.
8r	16B	16g	.
.	16B	16d	32aa
.	.	.	32gg
8D	16c	16f#	32ff#
.	.	.	32gg
.	16A	16c	32aa
.	.	.	32gg
8r	16c	16f#	32bb
.	.	.	32aa
.	16F#	16c	32ccc
.	.	.	32aa
=77	=77	=77	=77
16GG	8G	8B	8gg
16G	.	.	.
16D	4r	4r	4r
16BB	.	.	.
8GG	.	.	.
8GG	8B-	8e	8gg
=78	=78	=78	=78
8AA	16A	16d	8.ff
.	16d	16A	.
8A	16d	16f	.
.	16A	16A	32gg
.	.	.	32ff
8r	16c#	16e	8ee
.	16A	16A	.
8GG	16c#	16e	32a
.	.	.	32cc#
.	16e	16A	32ee
.	.	.	32aa
=79	=79	=79	=79
8FF	16d	16f	[12..aa
.	16A	16A	.
8F	16d	16f	.
.	.	.	96aa]
.	.	.	32ff
.	16A	16A	32gg
.	.	.	32ee
8r	16f	16a	16dd
.	16A	16A	16dd
8C#	16e	16g	16r
.	16A	16A	32ff
.	.	.	32ee
=80	=80	=80	=80
8D	16d	16f	16r
.	16A	16A	32gg
.	.	.	32ff
8BB	16d	16f	16r
.	16G	16G	32aa
.	.	.	32gg
8C	16c	16e	32ff
.	.	.	32ee
.	16G	16G	32ddd
.	.	.	32ccc
8FF	16d	16f	32bb
.	.	.	32aa
.	16d	16A	32gg
.	.	.	32ff
=81	=81	=81	=81
8GG	16c	16e	8.ee
.	16G	16G	.
8G	16c	16e	.
.	16G	16G	16ee-
8GG	16B	16d	8dd
.	16G	16G	.
8r	16d	16f	8g
.	16G	16G	.
=82	=82	=82	=82
8CC	16c	16e	16G 16cc 16e
.	16G	16G	32ee
.	.	.	32gg
8C	16e	16g	32ccc
.	.	.	32gg
.	16G	16G	32ee
.	.	.	32cc
4r	16d	16f	32b
.	.	.	32gg
.	16G	16G	16gg
.	16c	16e	32cc
.	.	.	32gg
.	16G	16G	16gg
=83	=83	=83	=83
8GG	16B	16d	16dd
.	16G	16G	16.gg
8r	16d	16f	.
.	.	.	32aa
.	16G	16G	32ff
.	.	.	32gg
8C	16c	16e	16ee
.	16G	16G	16cc
8EE	16e	16g	16cc
.	16G	16G	16cc
=84	=84	=84	=84
2FF	16e	16g	8cc
.	16A	16A	.
.	16e	16g	8cc#
.	16A	16A	.
.	16d	16f	32dd
.	.	.	32ee-
.	16A	16A	32ee
.	.	.	32ff
.	16d	16f	32ff#
.	.	.	32gg
.	16A	16A	32gg#
.	.	.	32aa
=85	=85	=85	=85
[2GG	16d	16f	8aa
.	16B	16G	.
.	16d	16f	16.b
.	16B	16G	.
.	.	.	32gg
.	16c	16e	8gg
.	16e	16G	.
.	16c	16e	16.ee
.	16e	16G	.
.	.	.	32ggg
=86	=86	=86	=86
4.GG]	16c	16d	4ggg
.	16G	16G	.
.	16c	16d	.
.	16G	16G	.
.	16B	16d	32G
.	.	.	32B
.	16G	16G	32d
.	.	.	32f
8GG	16B	16d	48g
.	.	.	48b
.	.	.	48dd
.	16G	16G	32ff
.	.	.	32b
=87	=87	=87	=87
4C	16c	16e	8cc
.	16G	16c	.
.	16e	16g	4.r
.	16c	16e	.
4r	16a	16cc	.
.	16g	16b	.
.	16f	16a	.
.	16e	16g	.
=88	=88	=88	=88
32G	2d	2f	2bb
32B	.	.	.
32d	.	.	.
32B	.	.	.
16f	.	.	.
32d	.	.	.
32B	.	.	.
32G	.	.	.
32A	.	.	.
32F	.	.	.
32G	.	.	.
32E	.	.	.
32F	.	.	.
32D	.	.	.
32E	.	.	.
=89	=89	=89	=89
4C	16e	16e	4ccc
.	16G	16c	.
.	16e	16g	.
.	16c	16e	.
4r	16a	16cc	4r
.	16g	16b	.
.	16f	16a	.
.	16e	16g	.
=90	=90	=90	=90
2GG	32d	32f	2b
.	32e	32g	.
.	32c	32e	.
.	32d	32f	.
.	32B	32d	.
.	32d	32f	.
.	32c	32e	.
.	32e	32g	.
.	32d	32f	.
.	32c#	32e	.
.	32d	32f	.
.	32c#	32e	.
.	32d	32f	.
.	32f	32a	.
.	32e	32g	.
.	32d	32f	.
=91	=91	=91	=91
32C	8c	8e	8cc
32E	.	.	.
32G	.	.	.
32c	.	.	.
32G	8r	8r	8r
32E	.	.	.
32C	.	.	.
32E	.	.	.
32GG	8E	8e	8cc
32AA	.	.	.
32FF	.	.	.
32GG	.	.	.
32EE	8G	8e	8cc
32FF	.	.	.
32DD	.	.	.
32EE	.	.	.
=92	=92	=92	=92
8CC	8G	8e	8cc
8r	8r	8r	8r
8CC	8G	8c	8e
16.r	16.r	16.r	16.r
32CC	32G	32c	32e
=93	=93	=93	=93
8CC	8G	8c	8e
4.r	4.r	4.r	4.r
==	==	==	==
*-	*-	*-	*-
!!!RWG1: This file contains only pitch and duration data.
!!!RWG2: Transposing instruments are not transposed.
!!!RWG3: Spines may have incompatible meters.
!!!RWG4: Durations of rests and tied notes may be interpreted.
!!!RWG: Key is interpreted using the Humdrum key tool.
!!!GTL: 6 Quartetti ("Tost III")
!!!AFT: stage1
!!!END: 1997/04/15
!!!KEY: 1755349895
!!!EMD: Converted from MuseData to Humdrum Dec 16, 2000, by Andreas Kornstaedt using muse2kern.
!!!EMD: Manual editing by Craig Sapp, Nov 2001
